X: 33764
T: Rattlin', Roarin' Willie
R: slip jig
M: 9/8
K: Amajor
|:f|ecA ABA cef|!trill!=g3 {fg} BGB !trill!d2 f|ecA ABA ceg|!trill!a3 {ga} ecA e2 f/2g/2|
{b}agf ecA cef|!trill!=g3 {fg} BGB !trill!d2 B|ABA !trill!c2 A cea|cAc BGB A2:|
|:f|ecA acA ecA|B=GB =gdB !trill!d2 f|ecA acA ecA|{b}agf ecA e2 f/2g/2|
{b}agf ecA cef|{a}=gfg BGB !trill!d2 B|ABA !trill!c2 A cea|cAc BGB A2:|

